assets/Locked with key/Flat/locked_with_key_flat.svg

<svg width="32" height="32" viewBox="0 0 32 32" fill="none" xmlns="http://www.w3.org/2000/svg">
<path d="M3 13C3 11.3431 4.34315 10 6 10H8L9.5 9L10.5 10H17.5L19 9L20 10H22C23.6569 10 25 11.3431 25 13V26C25 27.6569 23.6569 29 22 29H6C4.34315 29 3 27.6569 3 26V13Z" fill="#F9C23C"/>
<path d="M15.5 19.5002C16.1072 19.0441 16.5 18.3179 16.5 17.5C16.5 16.1193 15.3807 15 14 15C12.6193 15 11.5 16.1193 11.5 17.5C11.5 18.3179 11.8928 19.0441 12.5 19.5002V23C12.5 23.8284 13.1716 24.5 14 24.5C14.8284 24.5 15.5 23.8284 15.5 23V19.5002Z" fill="#433B6B"/>
<path d="M14 1C10.6863 1 8 3.68629 8 7V10H10.5V7C10.5 5.067 12.067 3.5 14 3.5C15.933 3.5 17.5 5.067 17.5 7V10H20V7C20 3.68629 17.3137 1 14 1Z" fill="#D3D3D3"/>
<path d="M30 9.5C30 11.4593 28.7478 13.1262 27 13.7439V22.5C27 23.3284 26.3284 24 25.5 24C24.6716 24 24 23.3284 24 22.5L24 20.7458C24 20.5458 24.0785 20.3558 24.2157 20.2258L24.5294 19.9158C24.8236 19.6258 24.8236 19.1558 24.5294 18.8758C24.2353 18.5958 24.2353 18.1258 24.5294 17.8458C24.8236 17.5558 24.8236 17.0858 24.5294 16.8058L24.2157 16.4958C24.0785 16.3558 24 16.1758 24 15.9758L24 13.7439C22.2522 13.1262 21 11.4593 21 9.5C21 7.01472 23.0147 5 25.5 5C27.9853 5 30 7.01472 30 9.5ZM25.5 8C26.0523 8 26.5 7.55228 26.5 7C26.5 6.44772 26.0523 6 25.5 6C24.9477 6 24.5 6.44772 24.5 7C24.5 7.55228 24.9477 8 25.5 8Z" fill="#D3D3D3"/>
</svg>

<svg xmlns="http://www.w3.org/2000/svg" width="32" height="32" fill="none"><path fill="#F9C23C" d="M3 13a3 3 0 0 1 3-3h2l1.5-1 1 1h7L19 9l1 1h2a3 3 0 0 1 3 3v13a3 3 0 0 1-3 3H6a3 3 0 0 1-3-3V13Z"/><path fill="#433B6B" d="M15.5 19.5a2.5 2.5 0 1 0-3 0V23a1.5 1.5 0 0 0 3 0v-3.5Z"/><path fill="#D3D3D3" d="M14 1a6 6 0 0 0-6 6v3h2.5V7a3.5 3.5 0 1 1 7 0v3H20V7a6 6 0 0 0-6-6ZM30 9.5a4.502 4.502 0 0 1-3 4.244V22.5a1.5 1.5 0 0 1-3 0v-1.754c0-.2.078-.39.216-.52l.313-.31a.723.723 0 0 0 0-1.04.712.712 0 0 1 0-1.03.723.723 0 0 0 0-1.04l-.313-.31a.734.734 0 0 1-.216-.52v-2.232A4.502 4.502 0 0 1 25.5 5 4.5 4.5 0 0 1 30 9.5ZM25.5 8a1 1 0 1 0 0-2 1 1 0 0 0 0 2Z"/></svg>
